X:753
T:Reel 753
M:4/4
K:Dmaj
L:1/8
d2cd AGED|CEA,F GECE|D2AG EFGE|ABcA GECE|d2AF GAGE|DFED CEA,C|dddc dfed|cAGE EDD2|d2fd efge|d2fd edcB|AGAB c2cA|EDEG EDD2|d2Ad dfed|e2cd efge|dfed fedB|cAGE EDD2|
